packages/dnb-ui-lib/assets/icons/document_contract.svg

<svg width="16" height="16" viewBox="0 0 16 16" fill="none" xmlns="http://www.w3.org/2000/svg">
<path d="M10.59 3.5L8.61761 1.32777C8.42808 1.11903 8.15923 1 7.87727 1H2C1.44772 1 1 1.44772 1 2V14C1 14.5523 1.44772 15 2 15H6M10.2417 11.3554L9.84785 14.7544C9.81477 14.9304 9.90194 15.1071 10.0629 15.1902C10.2238 15.2734 10.4209 15.2435 10.5491 15.1166L11.6834 14L12.8177 15.1166C12.9461 15.2431 13.143 15.2728 13.3039 15.1898C13.4647 15.1068 13.5521 14.9304 13.5196 14.7544L13.1207 11.3333M11.6666 11.8334C12.9552 11.8334 13.9999 10.8044 13.9999 9.53517C13.9999 8.26589 12.9552 7.23693 11.6666 7.23693C10.3779 7.23693 9.33325 8.26589 9.33325 9.53517C9.33325 10.8044 10.3779 11.8334 11.6666 11.8334Z" stroke="black" stroke-width="1.5" stroke-linecap="round" stroke-linejoin="round"/>
</svg>

<svg width="16" height="16" viewBox="0 0 16 16" fill="none" xmlns="http://www.w3.org/2000/svg"><path d="M10.59 3.5L8.618 1.328A1 1 0 007.878 1H2a1 1 0 00-1 1v12a1 1 0 001 1h4m4.242-3.645l-.394 3.4a.406.406 0 00.215.435.42.42 0 00.486-.073L11.683 14l1.135 1.117a.42.42 0 00.486.073.407.407 0 00.216-.436l-.4-3.42m-1.453.5c1.288 0 2.333-1.03 2.333-2.299 0-1.27-1.045-2.298-2.333-2.298-1.29 0-2.334 1.029-2.334 2.298 0 1.27 1.045 2.298 2.334 2.298z" stroke="#000" stroke-width="1.5" stroke-linecap="round" stroke-linejoin="round"/></svg>
